images/usecases/health-care/factories-1.svg

<svg width="262" height="322" viewBox="0 0 262 322" fill="none" xmlns="http://www.w3.org/2000/svg">
<path d="M60.25 108C60.25 56.4995 101.999 14.75 153.5 14.75C205.001 14.75 246.75 56.4995 246.75 108C246.75 159.501 205.001 201.25 153.5 201.25C101.999 201.25 60.25 159.501 60.25 108Z" stroke="#3E9AF8" stroke-width="1.5"/>
<path d="M107.5 153.573H113.096H199.5" stroke="#3E9AF8" stroke-width="4.55258" stroke-linecap="round"/>
<path d="M157.388 153.478H159.664V151.202V92.9671C159.664 89.1956 156.607 86.1383 152.836 86.1383H120.209C116.437 86.1383 113.38 89.1957 113.38 92.9671V151.202V153.478H115.656H157.388Z" stroke="#3E9AF8" stroke-width="4.55258"/>
<path d="M114.14 114.876H126.564M159.665 110.513L192.861 124.076V134.225" stroke="#3E9AF8" stroke-width="4.55258" stroke-linecap="round" stroke-linejoin="round"/>
<path d="M114.14 121.61H136.997" stroke="#3E9AF8" stroke-width="4.55258" stroke-linecap="round"/>
<path d="M153.405 85.9485V69.2557C153.405 66.7414 151.367 64.7031 148.853 64.7031H124.383C121.868 64.7031 119.83 66.7414 119.83 69.2557V85.9485" stroke="#3E9AF8" stroke-width="4.55258"/>
<rect x="127.796" y="72.1011" width="17.6412" height="6.25979" rx="2.27629" stroke="#3E9AF8" stroke-width="3.79381"/>
<path d="M181.859 153.478H184.135V151.202V134.889C184.135 133.003 182.606 131.474 180.72 131.474H171.995C170.109 131.474 168.58 133.003 168.58 134.889V151.202V153.478H170.856H181.859Z" stroke="#3E9AF8" stroke-width="4.55258"/>
<path d="M181.859 118.196V90.5009C181.859 89.8724 181.349 89.3628 180.72 89.3628H171.995C171.366 89.3628 170.856 89.8724 170.856 90.5009V114.046" stroke="#3E9AF8" stroke-width="4.55258"/>
<path d="M170.856 108.142H181.859M170.856 98.6577H181.859" stroke="#3E9AF8" stroke-width="4.55258" stroke-linecap="round"/>
<path d="M195.138 144.184C195.138 145.441 194.118 146.46 192.861 146.46C191.604 146.46 190.585 145.441 190.585 144.184C190.585 142.926 191.604 141.907 192.861 141.907C194.118 141.907 195.138 142.926 195.138 144.184Z" fill="#3E9AF8"/>
<path fill-rule="evenodd" clip-rule="evenodd" d="M171.91 62.5495C173.1 62.1433 174.394 62.7784 174.8 63.9681C176.357 68.5287 175.487 71.9805 174.767 74.5625C174.011 77.2728 173.788 78.2226 174.552 79.3942C175.239 80.4472 174.942 81.8576 173.889 82.5443C172.836 83.2311 171.426 82.9342 170.739 81.8811C168.795 78.9003 169.631 75.9741 170.254 73.7907C170.298 73.6366 170.341 73.4862 170.382 73.3397C171.037 70.9897 171.59 68.6559 170.491 65.4392C170.085 64.2495 170.72 62.9557 171.91 62.5495Z" fill="#3E9AF8"/>
<path fill-rule="evenodd" clip-rule="evenodd" d="M179.687 62.5495C180.877 62.1433 182.171 62.7784 182.577 63.9681C184.134 68.5287 183.264 71.9805 182.544 74.5625C181.789 77.2728 181.565 78.2226 182.33 79.3942C183.016 80.4472 182.719 81.8576 181.666 82.5443C180.613 83.2311 179.203 82.9342 178.516 81.8811C176.572 78.9003 177.408 75.9741 178.031 73.7907C178.075 73.6366 178.118 73.4862 178.159 73.3397C178.814 70.9897 179.367 68.6559 178.269 65.4392C177.863 64.2495 178.498 62.9557 179.687 62.5495Z" fill="#3E9AF8"/>
<path d="M0.5 110H43.5" stroke="#3E9AF8" stroke-width="1.5"/>
<line y1="-0.75" x2="80" y2="-0.75" transform="matrix(-4.37112e-08 -1 -1 4.37112e-08 150.5 298)" stroke="#3E9AF8" stroke-width="1.5"/>
<mask id="path-17-inside-1_10889_42979" fill="white">
<path d="M42.5003 109.256C42.4682 123.656 45.2768 137.921 50.7653 151.235C56.2538 164.548 64.3143 176.648 74.4854 186.842C84.6565 197.036 96.7384 205.123 110.039 210.641C123.34 216.159 137.599 219 151.999 219L151.999 217.604C137.783 217.604 123.706 214.8 110.574 209.352C97.4427 203.904 85.5148 195.92 75.4733 185.856C65.4319 175.792 57.474 163.846 52.0555 150.703C46.637 137.559 43.8642 123.476 43.8958 109.259L42.5003 109.256Z"/>
</mask>
<path d="M42.5003 109.256C42.4682 123.656 45.2768 137.921 50.7653 151.235C56.2538 164.548 64.3143 176.648 74.4854 186.842C84.6565 197.036 96.7384 205.123 110.039 210.641C123.34 216.159 137.599 219 151.999 219L151.999 217.604C137.783 217.604 123.706 214.8 110.574 209.352C97.4427 203.904 85.5148 195.92 75.4733 185.856C65.4319 175.792 57.474 163.846 52.0555 150.703C46.637 137.559 43.8642 123.476 43.8958 109.259L42.5003 109.256Z" fill="#91A3BE" stroke="#3E9AF8" stroke-width="2" mask="url(#path-17-inside-1_10889_42979)"/>
<circle cx="12" cy="12" r="11.25" transform="matrix(1 0 0 -1 139.5 322)" fill="#F4F8FE" stroke="#3E9AF8" stroke-width="1.5"/>
</svg>

<svg width="262" height="322" fill="none" xmlns="http://www.w3.org/2000/svg"><path d="M60.25 108c0-51.5 41.749-93.25 93.25-93.25S246.75 56.5 246.75 108c0 51.501-41.749 93.25-93.25 93.25S60.25 159.501 60.25 108Z" stroke="#3E9AF8" stroke-width="1.5"/><path d="M107.5 153.573h92" stroke="#3E9AF8" stroke-width="4.553" stroke-linecap="round"/><path d="M157.388 153.478h2.276V92.967a6.828 6.828 0 0 0-6.828-6.829h-32.627a6.829 6.829 0 0 0-6.829 6.83V153.477H157.388Z" stroke="#3E9AF8" stroke-width="4.553"/><path d="M114.14 114.876h12.424m33.101-4.363 33.196 13.563v10.149" stroke="#3E9AF8" stroke-width="4.553" stroke-linecap="round" stroke-linejoin="round"/><path d="M114.14 121.61h22.857" stroke="#3E9AF8" stroke-width="4.553" stroke-linecap="round"/><path d="M153.405 85.948V69.256a4.552 4.552 0 0 0-4.552-4.553h-24.47a4.553 4.553 0 0 0-4.553 4.553v16.692" stroke="#3E9AF8" stroke-width="4.553"/><rect x="127.796" y="72.101" width="17.641" height="6.26" rx="2.276" stroke="#3E9AF8" stroke-width="3.794"/><path d="M181.859 153.478h2.276v-18.589a3.415 3.415 0 0 0-3.415-3.415h-8.725a3.415 3.415 0 0 0-3.415 3.415v18.589h13.279ZM181.859 118.196V90.501c0-.629-.51-1.138-1.139-1.138h-8.725c-.629 0-1.139.51-1.139 1.138v23.545" stroke="#3E9AF8" stroke-width="4.553"/><path d="M170.856 108.142h11.003m-11.003-9.484h11.003" stroke="#3E9AF8" stroke-width="4.553" stroke-linecap="round"/><path d="M195.138 144.184a2.277 2.277 0 1 1-4.554-.002 2.277 2.277 0 0 1 4.554.002Z" fill="#3E9AF8"/><path fill-rule="evenodd" clip-rule="evenodd" d="M171.91 62.55a2.276 2.276 0 0 1 2.89 1.418c1.557 4.56.687 8.013-.033 10.594-.756 2.71-.979 3.66-.215 4.832a2.276 2.276 0 1 1-3.813 2.487c-1.944-2.98-1.108-5.907-.485-8.09l.128-.451c.655-2.35 1.208-4.684.109-7.9a2.276 2.276 0 0 1 1.419-2.89ZM179.687 62.55a2.276 2.276 0 0 1 2.89 1.418c1.557 4.56.687 8.013-.033 10.594-.755 2.71-.979 3.66-.214 4.832a2.277 2.277 0 0 1-3.814 2.487c-1.944-2.98-1.108-5.907-.485-8.09l.128-.451c.655-2.35 1.208-4.684.11-7.9a2.277 2.277 0 0 1 1.418-2.89Z" fill="#3E9AF8"/><path d="M.5 110h43M151.25 298v-80" stroke="#3E9AF8" stroke-width="1.5"/><mask id="a" fill="#fff"><path d="M42.5 109.256a109.505 109.505 0 0 0 67.539 101.385 109.503 109.503 0 0 0 41.96 8.359v-1.396A108.104 108.104 0 0 1 43.896 109.259l-1.396-.003Z"/></mask><path d="M42.5 109.256a109.505 109.505 0 0 0 67.539 101.385 109.503 109.503 0 0 0 41.96 8.359v-1.396A108.104 108.104 0 0 1 43.896 109.259l-1.396-.003Z" fill="#91A3BE" stroke="#3E9AF8" stroke-width="2" mask="url(#a)"/><circle cx="12" cy="12" r="11.25" transform="matrix(1 0 0 -1 139.5 322)" fill="#F4F8FE" stroke="#3E9AF8" stroke-width="1.5"/></svg>
